public/avatar/item2/18.svg

<svg xmlns:xlink="http://www.w3.org/1999/xlink" height="99.2" width="82.2" xmlns="http://www.w3.org/2000/svg"><use height="10" transform="translate(33.3 71.45)" width="10" xlink:href="#a"/><defs><g id="a"><path d="M12.3 29.7q0 2.05-1.5 3.55-1.45 1.45-3.55 1.45-2.05 0-3.45-1.45-1.5-1.5-1.5-3.55t1.5-3.5q1.4-1.5 3.45-1.5 2.1 0 3.55 1.5 1.5 1.45 1.5 3.5" fill-rule="evenodd" transform="translate(-2.3 -24.7)"/><path d="M11.45 29.7q0 1.7-1.2 2.95-1.25 1.2-3 1.2-1.7 0-2.9-1.2-1.2-1.25-1.2-2.95 0-1.75 1.2-2.95 1.2-1.2 2.9-1.2 1.75 0 3 1.2 1.2 1.2 1.2 2.95" fill="#fff" fill-rule="evenodd" transform="translate(-2.3 -24.7)"/><path d="M3.15 29.7q0-2.95 2.7-3.9v7.75q-2.7-.95-2.7-3.85" fill="#0c8c3d" fill-rule="evenodd" transform="translate(-2.3 -24.7)"/><path d="M11.45 29.7q0 2.75-2.6 3.8v-7.65q2.6 1.1 2.6 3.85" fill="red" fill-rule="evenodd" transform="translate(-2.3 -24.7)"/><path d="M10 32.4q-1.3.9-2.7.9-1.8 0-2.8-1.1" fill="none" stroke="#000" stroke-linecap="round" stroke-linejoin="round" stroke-opacity=".302" transform="translate(-2.3 -24.7)"/><path d="M4.5 27.15q1.3-.9 2.7-.9 1.8 0 2.8 1.1" fill="none" stroke="#fff" stroke-linecap="round" stroke-linejoin="round" stroke-opacity=".6" transform="translate(-2.3 -24.7)"/></g></defs></svg>

<?xml version="1.0" encoding="UTF-8" standalone="no"?>
<svg xmlns:xlink="http://www.w3.org/1999/xlink" height="99.2px" width="82.2px" xmlns="http://www.w3.org/2000/svg">
  <g transform="matrix(1.0, 0.0, 0.0, 1.0, 31.0, 46.75)">
    <use height="10.0" transform="matrix(1.0, 0.0, 0.0, 1.0, 2.3, 24.7)" width="10.0" xlink:href="#shape0"/>
  </g>
  <defs>
    <g id="shape0" transform="matrix(1.0, 0.0, 0.0, 1.0, -2.3, -24.7)">
      <path d="M12.3 29.7 Q12.3 31.75 10.8 33.25 9.35 34.7 7.25 34.7 5.2 34.7 3.8 33.25 2.3 31.75 2.3 29.7 2.3 27.65 3.8 26.2 5.2 24.7 7.25 24.7 9.35 24.7 10.8 26.2 12.3 27.65 12.3 29.7" fill="#000000" fill-rule="evenodd" stroke="none"/>
      <path d="M11.45 29.7 Q11.45 31.4 10.25 32.65 9.0 33.85 7.25 33.85 5.55 33.85 4.35 32.65 3.15 31.4 3.15 29.7 3.15 27.95 4.35 26.75 5.55 25.55 7.25 25.55 9.0 25.55 10.25 26.75 11.45 27.95 11.45 29.7" fill="#ffffff" fill-rule="evenodd" stroke="none"/>
      <path d="M3.15 29.7 Q3.15 26.75 5.85 25.8 L5.85 33.55 Q3.15 32.6 3.15 29.7" fill="#0c8c3d" fill-rule="evenodd" stroke="none"/>
      <path d="M11.45 29.7 Q11.45 32.45 8.85 33.5 L8.85 25.85 Q11.45 26.95 11.45 29.7" fill="#ff0000" fill-rule="evenodd" stroke="none"/>
      <path d="M10.0 32.4 Q8.7 33.3 7.3 33.3 5.5 33.3 4.5 32.2" fill="none" stroke="#000000" stroke-linecap="round" stroke-linejoin="round" stroke-opacity="0.3019608" stroke-width="1.0"/>
      <path d="M4.5 27.15 Q5.8 26.25 7.2 26.25 9.0 26.25 10.0 27.35" fill="none" stroke="#ffffff" stroke-linecap="round" stroke-linejoin="round" stroke-opacity="0.6" stroke-width="1.0"/>
    </g>
  </defs>
</svg>
